package/feeds/vuci/tlt_hotspot_theme_airport/files/hotspotlogin/themes/airport/img/logo.svg

<svg width="156" height="31" viewBox="0 0 156 31" fill="none" xmlns="http://www.w3.org/2000/svg">
<path d="M53.1473 17.8455L52.4517 20.0134H59.7639L58.6634 23.4351H46.8594L51.3997 9.38949H62.9151L61.8294 12.7494H54.7913L54.1969 14.6225H60.1284L59.0808 17.8455H53.1473ZM32.326 21.8374L36.7716 26.3416L32.326 30.8503L27.8784 26.3416L27.8826 26.3398L17.2717 15.5857L17.2845 15.575L17.2761 15.5665L23.4099 9.16308L19.818 5.63472L10.1662 15.7202L19.9655 25.6519L23.5983 21.9687L28.042 26.475L23.5743 31L19.2005 26.566L15.0521 30.7716L10.6089 26.2671L10.6153 26.2626L-4.03077e-07 15.5087L0.0125479 15.4958L0.00836512 15.4915L10.4592 4.5792L10.4531 4.57073L14.8311 2.01495e-06L19.3335 4.42953L23.3531 0.230645L27.7815 4.58567L32.1026 0.0745006L36.6133 4.51496L32.2353 9.08591L28.5698 5.48058L18.9117 15.5663L28.7129 25.496L32.326 21.8374ZM14.9572 9.00248L11.3001 5.40609L1.64176 15.4873L11.4434 25.417L14.7611 22.0595L8.52622 15.7351L8.53459 15.7266L8.52622 15.7204L14.9572 9.00248ZM69.8923 9.38949H65.4174L60.8747 23.4351H71.8462L73.0496 19.7038H66.5555L69.8923 9.38949ZM49.7538 9.38949H36.2571L35.0622 13.0805H39.6404L36.2888 23.4351H40.7699L44.1153 13.0805H48.5564L49.7538 9.38949ZM116.263 9.38949L114.126 16.0088C113.923 16.6387 113.788 17.1941 113.712 17.6918L113.679 17.9269L113.438 16.831C113.417 16.6753 113.405 16.5169 113.392 16.3548C113.375 16.1904 113.35 16.0449 113.304 15.9149L111.364 9.38949H107.115L102.575 23.4351H106.82L108.936 16.8524C109.13 16.2542 109.265 15.6947 109.345 15.1692L109.383 14.9386C109.442 15.2078 109.492 15.4619 109.538 15.699C109.673 16.4933 109.749 16.9102 109.754 16.9486L111.723 23.4351H115.968L120.512 9.38949H116.263ZM151.561 23.4349L151.587 21.5791H146.393L145.204 23.4349H141.557L141.304 22.751L150.676 9.38972H155.212L156 23.4351H151.561V23.4349ZM151.666 18.6251L151.527 13.7639L148.252 18.6251H151.666ZM145.402 9.38949H140.014L133.75 14.0374L135.25 9.38949H130.824L126.283 23.4351H130.701L132.152 18.9603L134.015 17.8071L136.051 23.4349H140.824L141.303 22.751L138.264 14.5647L145.402 9.38949ZM102.971 15.6198C102.92 15.8056 102.84 16.0726 102.718 16.4208C101.968 18.6998 100.72 20.5003 98.9955 21.8224C97.2714 23.1425 95.273 23.8025 92.9968 23.8025C91.0487 23.8025 89.6028 23.2919 88.6668 22.2668C87.7268 21.25 87.3938 19.8468 87.6637 18.0632C87.7312 17.5934 87.8657 17.0445 88.0683 16.4208C88.8061 14.1804 90.0499 12.3883 91.8074 11.0361C93.5573 9.69508 95.5552 9.01765 97.7898 9.01765C99.7413 9.01765 101.188 9.52399 102.124 10.5322C103.068 11.538 103.401 12.9368 103.131 14.7184C103.068 15.1371 103.013 15.4362 102.971 15.6198ZM98.5653 15.0519C98.6794 14.2828 98.6158 13.6999 98.3628 13.2939C98.0637 12.8023 97.4944 12.5527 96.6555 12.5527C95.5935 12.5527 94.7121 12.9413 93.9954 13.7276C93.4391 14.3512 92.9669 15.2482 92.579 16.4208C92.5073 16.643 92.4397 16.8694 92.3809 17.1042C92.3219 17.3391 92.2713 17.5678 92.2416 17.7877C92.1238 18.5566 92.187 19.1417 92.4397 19.5479C92.7393 20.0388 93.3125 20.2871 94.1512 20.2871C95.1964 20.2871 96.0734 19.9005 96.786 19.1207C97.3594 18.4926 97.836 17.5934 98.2195 16.4208C98.3967 15.8761 98.5107 15.419 98.5653 15.0519ZM123.383 9.38949L118.839 23.4351H123.417L127.961 9.38949H123.383ZM89.3369 9.38949H75.8469L74.6454 13.0805H79.2235L75.8742 23.4351H80.3554L83.7004 13.0805H88.1396L89.3369 9.38949Z" fill="#0054A6"/>
</svg>

<svg xmlns="http://www.w3.org/2000/svg" width="156" height="31" fill="none"><path fill="#0054A6" d="m53.147 17.846-.695 2.167h7.312l-1.1 3.422H46.858L51.4 9.39h11.516l-1.086 3.36h-7.038l-.594 1.874h5.931l-1.047 3.223zm-20.821 3.991 4.446 4.505-4.446 4.508-4.448-4.508.005-.002-10.611-10.754.013-.011-.009-.008 6.134-6.404-3.592-3.528-9.652 10.085 9.8 9.932 3.632-3.683 4.444 4.506L23.574 31l-4.373-4.434-4.149 4.206-4.443-4.505.006-.004L0 15.509l.013-.013-.005-.005L10.46 4.58l-.006-.008L14.831 0l4.503 4.43 4.02-4.2 4.428 4.356 4.32-4.511 4.511 4.44-4.378 4.57-3.665-3.604-9.658 10.085 9.8 9.93zM14.957 9.002 11.3 5.406 1.642 15.487l9.801 9.93 3.318-3.358-6.235-6.324.009-.008-.009-.007zm54.935.387h-4.475l-4.542 14.046h10.971l1.204-3.731h-6.495zm-20.138 0H36.257l-1.195 3.692h4.578l-3.35 10.354h4.48l3.346-10.354h4.441zm66.509 0-2.137 6.62a11 11 0 0 0-.414 1.683l-.033.235-.241-1.096c-.021-.156-.033-.314-.046-.476a2 2 0 0 0-.088-.44l-1.94-6.526h-4.249l-4.54 14.046h4.245l2.116-6.583q.29-.896.409-1.683l.038-.23q.087.404.155.76c.135.794.211 1.211.216 1.25l1.969 6.486h4.245l4.544-14.046zm35.298 14.046.026-1.856h-5.194l-1.189 1.856h-3.647l-.253-.684 9.372-13.361h4.536L156 23.435zm.105-4.81-.139-4.861-3.275 4.861zm-6.264-9.236h-5.388l-6.264 4.648 1.5-4.648h-4.426l-4.541 14.046h4.418l1.451-4.475 1.863-1.153 2.036 5.628h4.773l.479-.684-3.039-8.186zm-42.431 6.23c-.051.187-.131.454-.253.802-.75 2.279-1.998 4.08-3.722 5.401q-2.586 1.98-6 1.98-2.922.001-4.33-1.535-1.409-1.527-1.002-4.204.1-.705.404-1.642 1.105-3.359 3.74-5.385c1.75-1.34 3.747-2.018 5.982-2.018q2.928.001 4.334 1.514c.944 1.006 1.277 2.405 1.007 4.186q-.096.628-.16.902m-4.406-.567c.114-.77.05-1.352-.202-1.758q-.45-.74-1.707-.741c-1.062 0-1.944.388-2.66 1.175q-.836.934-1.417 2.693-.11.332-.198.683a6 6 0 0 0-.14.684c-.117.769-.054 1.354.199 1.76.3.49.873.74 1.711.74q1.567.002 2.635-1.167.859-.942 1.433-2.7a9 9 0 0 0 .346-1.37m24.818-5.663-4.544 14.046h4.578l4.544-14.046zm-34.046 0h-13.49l-1.202 3.692h4.579l-3.35 10.354h4.481L83.7 13.081h4.44z"/></svg>
